data/styles/clear/style-clear/symbols/bakery-m.svg

<svg height="24" viewBox="0 0 24 24" width="24"><g fill="none" fill-rule="evenodd"><circle cx="12" cy="12" fill="#fff" opacity=".6" r="12"/><circle cx="12" cy="12" fill="#8c5f93" r="11"/><path d="m11.4615385 8c-1.0769231 0-1.61538465.57142857-1.61538465 1.71428571l1.07692305 4.57142859.5384616.5714286h1.076923l.5384616-.5714286 1.0769231-4.57142859c0-1.14285714-.5384616-1.71428571-1.6153847-1.71428571zm-2.69230773 1.71428571-2.15384615 1.14285719 1.61538461 4h1.07692308l.53846154-.5714286zm6.46153843 0-1.076923 4.57142859.5384615.5714286h1.0769231l1.6153846-4zm-9.15384612 2.28571429-.53846154.5714286-.53846154 1.7142857v1.7142857h.53846154l1.61538461-1.1428571zm11.84615382 0-1.0769231 2.8571429 1.0769231 1.1428571h1.0769231v-1.7142857l-.5384615-1.7142857z" fill="#fff"/></g></svg>

<svg width="24" height="24" viewBox="0 0 24 24">
  <g fill="none" fill-rule="evenodd">
    <circle cx="12" cy="12" r="12" fill="#FFF" opacity=".6"/>
    <circle cx="12" cy="12" r="11" fill="#8C5F93"/>
    <path fill="#FFF" d="M11.4615385,8 C10.3846154,8 9.84615385,8.57142857 9.84615385,9.71428571 L10.9230769,14.2857143 L11.4615385,14.8571429 L12.5384615,14.8571429 L13.0769231,14.2857143 L14.1538462,9.71428571 C14.1538462,8.57142857 13.6153846,8 12.5384615,8 L11.4615385,8 L11.4615385,8 Z M8.76923077,9.71428571 L6.61538462,10.8571429 L8.23076923,14.8571429 L9.30769231,14.8571429 L9.84615385,14.2857143 L8.76923077,9.71428571 L8.76923077,9.71428571 Z M15.2307692,9.71428571 L14.1538462,14.2857143 L14.6923077,14.8571429 L15.7692308,14.8571429 L17.3846154,10.8571429 L15.2307692,9.71428571 L15.2307692,9.71428571 Z M6.07692308,12 L5.53846154,12.5714286 L5,14.2857143 L5,16 L5.53846154,16 L7.15384615,14.8571429 L6.07692308,12 L6.07692308,12 Z M17.9230769,12 L16.8461538,14.8571429 L17.9230769,16 L19,16 L19,14.2857143 L18.4615385,12.5714286 L17.9230769,12 L17.9230769,12 Z"/>
  </g>
</svg>
